X:1
T:Andy Di Jarlis
Z: id:dc-jig-173
M:6/8
L:1/8
K:E Major
E|EGB EGB|EGB c2B|EGB EGB|DFA B2A|!
EGB EGB|EGB c2a|gfe Bcd|efe e2:|!
a|g2e efg|aba c2e|f3 fge|dfB B2a|!
g2e efg|aba c2e|f3 Bcd|efe e2:|!

